X:1
T:Fantaisie 8 - Vite
T:Fantaisie 8 - Vite
T:Georg Philipp Telemann
T:2. Douzaine - TWV 33
C:Georg Philipp Telemann
%%score { 1 | 2 }
L:1/8
M:4/4
K:A
V:1 treble nm="Klavier" snm="Flgl."
V:2 bass 
V:1
 ed c2 cB A2 | f2 z2 e2 z2 | dc B2 cB A2 | B2 G2 G2 E2 | AGAc AGAc | AGAc PA4 | BABd BABd | %7
 BABd PB4 | c2 B2 A2 a2 | A2 Bc B2 A2 | c2 B2 A2 a2 | A4 z4 | c2 f2 ^e2 f2 | c2 f^e f4 | %14
 B2 e2 ^d2 e2 | B2 e^d e4 | A2 Bc B2 A2 | G2 E2 ^D2 E2 | BA G2 GF E2 | c2 z2 B2 z2 | GFGE F4 | %21
 GFGE A4 | G2 F2 E2 e2 | E4 z4 | ed c2 cB A2 | f2 z2 e2 z z | dc B2 cB A2 | B2 G2 G2 E2 | %28
 AGAc AGAc | AGAc PA4 | BABd BABd | BABd PB4 | c2 B2 A2 a2 | A2 Bc B2 A2 | c2 B2 A2 a2 | A4 z4 | %36
 f4 e2 d2 | f2 de =gfed | f2 e2 d2 a2 | d6 f2 | e2 ef d2 de | c2 cd B2 Bc | AcBA d4 | BdcB c4 | %44
 AcBA e4 | dcBA ecBA | dcBA d2 c2 | B2 cd c2 !breath!B2 | ed c2 cB A2 | f2 z2 e2 z2 | dc B2 cB A2 | %51
 B2 G2 G2 E2 | AGAc AGAc | AGAc PA4 | BABd BABd | BABd PB4 | c2 B2 A2 a2 | A2 Bc B2 A2 | %58
 c2 B2 A2 a2 | A4 z4 |] %60
V:2
 CB, A,2 A,B, C2 | D,2 A,2 C,2 A,2 | B,,2 G,2 A,,2 A,2 | E,4 D,4 | C,2 A,2 C,2 A,2 | %5
 C,2 A,2 C,2 A,2 | D,2 A,2 D,2 A,2 | D,2 A,2 D,2 A,2 | E,4 E,,4 | F,,4 z2 F,2 | E,4 E,,4 | %11
 A,,B,, C,2 C,D, E,2 | A,4 A,,4 | A,4 A,,4 | G,4 G,,4 | G,4 G,,4 | F,4 ^D,4 | E,4 z4 | %18
 G,F, E,2 E,F, G,2 | A,2 A,,2 ^D,2 B,,2 | E,4 ^D,2 B,,2 | E,4 C2 A,2 | B,4 B,,4 | E,4 ED C2 | %24
 CB, A,2 A,B, C2 | D,2 A,2 C,2 A,2 | B,,2 G,2 A,,2 A,2 | E,4 D,4 | C,2 A,2 C,2 A,2 | %29
 C,2 A,2 C,2 A,2 | D,2 A,2 D,2 A,2 | D,2 A,2 D,2 A,2 | E,4 E,,4 | F,,4 z2 F,2 | E,4 E,,4 | %35
 F,,4 F,E, D,2 | D4 z4 | D,4 z4 | D,,4 z4 | z2 D2 D,2 D2 | C2 CD B,2 B,C | A,2 A,B, G,2 G,A, | %42
 F,4 B,2 A,2 | G,4 A,2 A,,2 | F,4 G,2 E,2 | A,4 A,,4 | A,4 G,2 A,2 | E,4 E2 D2 | CB, A,2 A,B, C2 | %49
 D,2 A,2 C,2 A,2 | B,,2 G,2 A,,2 A,2 | E,4 D,4 | C,2 A,2 C,2 A,2 | C,2 A,2 C,2 A,2 | %54
 D,2 A,2 D,2 A,2 | D,2 A,2 D,2 A,2 | E,4 E,,4 | F,,4 z2 F,2 | E,4 E,,4 | A,,4 z4 |] %60

